X:363
T:Travers'
Z: id:dc-reel-372
M:C
L:1/8
K:A Dorian
GB|A2dA eAdA|A2BG AGEG|A2dA eAdA|egdB GBdB|!
A2dA eAdA|A2BG AGEG|cBcA BGGB|dBAG EF:|!
GA|Bdef gedB|GBAG GED2|Bdef g3b|a3f gfed|!
Bdef gedB|GBAG GED2|cBcA BGGB|dBAG EF:|!

